lightroom-presets/japanese-styles/Japanese-Soft-Film.xmp
<?xml version="1.0" encoding="UTF-8"?>
<x:xmpmeta xmlns:x="adobe:ns:meta/" x:xmptk="Adobe XMP Core 7.0-c000 1.000000, 0000/00/00-00:00:00">
  <rdf:RDF xmlns:rdf="http://www.w3.org/1999/02/22-rdf-syntax-ns#">
    <rdf:Description rdf:about=""
      xmlns:crs="http://ns.adobe.com/camera-raw-settings/1.0/">
      <crs:Version>15.0</crs:Version>
      <crs:ProcessVersion>11.0</crs:ProcessVersion>
      <crs:WhiteBalance>As Shot</crs:WhiteBalance>
      <crs:Temperature>+8</crs:Temperature>
      <crs:Tint>+5</crs:Tint>
      <crs:Exposure2012>+0.15</crs:Exposure2012>
      <crs:Contrast2012>-15</crs:Contrast2012>
      <crs:Highlights2012>-25</crs:Highlights2012>
      <crs:Shadows2012>+30</crs:Shadows2012>
      <crs:Whites2012>-10</crs:Whites2012>
      <crs:Blacks2012>+15</crs:Blacks2012>
      <crs:Texture>-10</crs:Texture>
      <crs:Clarity2012>-15</crs:Clarity2012>
      <crs:Dehaze>-5</crs:Dehaze>
      <crs:Vibrance>-10</crs:Vibrance>
      <crs:Saturation>-8</crs:Saturation>
      <crs:ParametricShadows>+15</crs:ParametricShadows>
      <crs:ParametricDarks>+10</crs:ParametricDarks>
      <crs:ParametricLights>-10</crs:ParametricLights>
      <crs:ParametricHighlights>-20</crs:ParametricHighlights>
      <crs:ParametricShadowSplit>25</crs:ParametricShadowSplit>
      <crs:ParametricMidtoneSplit>50</crs:ParametricMidtoneSplit>
      <crs:ParametricHighlightSplit>75</crs:ParametricHighlightSplit>
      <crs:SharpenRadius>+1.0</crs:SharpenRadius>
      <crs:SharpenDetail>25</crs:SharpenDetail>
      <crs:SharpenEdgeMasking>50</crs:SharpenEdgeMasking>
      <crs:LuminanceSmoothing>25</crs:LuminanceSmoothing>
      <crs:ColorNoiseReduction>25</crs:ColorNoiseReduction>
      <crs:HueAdjustmentRed>+5</crs:HueAdjustmentRed>
      <crs:HueAdjustmentOrange>+10</crs:HueAdjustmentOrange>
      <crs:HueAdjustmentYellow>+5</crs:HueAdjustmentYellow>
      <crs:HueAdjustmentGreen>-5</crs:HueAdjustmentGreen>
      <crs:HueAdjustmentAqua>-10</crs:HueAdjustmentAqua>
      <crs:HueAdjustmentBlue>+5</crs:HueAdjustmentBlue>
      <crs:HueAdjustmentPurple>+10</crs:HueAdjustmentPurple>
      <crs:HueAdjustmentMagenta>+5</crs:HueAdjustmentMagenta>
      <crs:SaturationAdjustmentRed>-5</crs:SaturationAdjustmentRed>
      <crs:SaturationAdjustmentOrange>+10</crs:SaturationAdjustmentOrange>
      <crs:SaturationAdjustmentYellow>+8</crs:SaturationAdjustmentYellow>
      <crs:SaturationAdjustmentGreen>-10</crs:SaturationAdjustmentGreen>
      <crs:SaturationAdjustmentAqua>-15</crs:SaturationAdjustmentAqua>
      <crs:SaturationAdjustmentBlue>-5</crs:SaturationAdjustmentBlue>
      <crs:SaturationAdjustmentPurple>+5</crs:SaturationAdjustmentPurple>
      <crs:SaturationAdjustmentMagenta>+8</crs:SaturationAdjustmentMagenta>
      <crs:LuminanceAdjustmentRed>+5</crs:LuminanceAdjustmentRed>
      <crs:LuminanceAdjustmentOrange>+8</crs:LuminanceAdjustmentOrange>
      <crs:LuminanceAdjustmentYellow>+10</crs:LuminanceAdjustmentYellow>
      <crs:LuminanceAdjustmentGreen>+5</crs:LuminanceAdjustmentGreen>
      <crs:LuminanceAdjustmentAqua>0</crs:LuminanceAdjustmentAqua>
      <crs:LuminanceAdjustmentBlue>-5</crs:LuminanceAdjustmentBlue>
      <crs:LuminanceAdjustmentPurple>0</crs:LuminanceAdjustmentPurple>
      <crs:LuminanceAdjustmentMagenta>+5</crs:LuminanceAdjustmentMagenta>
      <crs:SplitToningShadowHue>35</crs:SplitToningShadowHue>
      <crs:SplitToningShadowSaturation>8</crs:SplitToningShadowSaturation>
      <crs:SplitToningHighlightHue>45</crs:SplitToningHighlightHue>
      <crs:SplitToningHighlightSaturation>12</crs:SplitToningHighlightSaturation>
      <crs:SplitToningBalance>0</crs:SplitToningBalance>
      <crs:ColorGradeMidtoneHue>40</crs:ColorGradeMidtoneHue>
      <crs:ColorGradeMidtoneSat>15</crs:ColorGradeMidtoneSat>
      <crs:ColorGradeShadowLum>+5</crs:ColorGradeShadowLum>
      <crs:ColorGradeHighlightLum>-5</crs:ColorGradeHighlightLum>
      <crs:GrainAmount>30</crs:GrainAmount>
      <crs:GrainSize>25</crs:GrainSize>
      <crs:GrainFrequency>50</crs:GrainFrequency>
      <crs:PostCropVignetteAmount>-8</crs:PostCropVignetteAmount>
      <crs:PostCropVignetteMidpoint>50</crs:PostCropVignetteMidpoint>
      <crs:PostCropVignetteFeather>50</crs:PostCropVignetteFeather>
      <crs:PostCropVignetteRoundness>0</crs:PostCropVignetteRoundness>
      <crs:ToneCurveName2012>Custom</crs:ToneCurveName2012>
      <crs:ToneCurvePV2012>
        <rdf:Seq>
          <rdf:li>0, 10</rdf:li>
          <rdf:li>64, 68</rdf:li>
          <rdf:li>128, 128</rdf:li>
          <rdf:li>192, 185</rdf:li>
          <rdf:li>255, 242</rdf:li>
        </rdf:Seq>
      </crs:ToneCurvePV2012>
      <crs:ToneCurvePV2012Red>
        <rdf:Seq>
          <rdf:li>0, 5</rdf:li>
          <rdf:li>255, 255</rdf:li>
        </rdf:Seq>
      </crs:ToneCurvePV2012Red>
      <crs:ToneCurvePV2012Green>
        <rdf:Seq>
          <rdf:li>0, 3</rdf:li>
          <rdf:li>255, 255</rdf:li>
        </rdf:Seq>
      </crs:ToneCurvePV2012Green>
      <crs:ToneCurvePV2012Blue>
        <rdf:Seq>
          <rdf:li>0, 8</rdf:li>
          <rdf:li>255, 250</rdf:li>
        </rdf:Seq>
      </crs:ToneCurvePV2012Blue>
    </rdf:Description>
  </rdf:RDF>
</x:xmpmeta>
