lightroom-presets/japanese-styles/Kyoto-Moody.xmp
<?xml version="1.0" encoding="UTF-8"?>
<x:xmpmeta xmlns:x="adobe:ns:meta/" x:xmptk="Adobe XMP Core 7.0-c000 1.000000, 0000/00/00-00:00:00">
  <rdf:RDF xmlns:rdf="http://www.w3.org/1999/02/22-rdf-syntax-ns#">
    <rdf:Description rdf:about=""
      xmlns:crs="http://ns.adobe.com/camera-raw-settings/1.0/">
      <crs:Version>15.0</crs:Version>
      <crs:ProcessVersion>11.0</crs:ProcessVersion>
      <crs:WhiteBalance>As Shot</crs:WhiteBalance>
      <crs:Temperature>+3</crs:Temperature>
      <crs:Tint>-8</crs:Tint>
      <crs:Exposure2012>-0.10</crs:Exposure2012>
      <crs:Contrast2012>-5</crs:Contrast2012>
      <crs:Highlights2012>-40</crs:Highlights2012>
      <crs:Shadows2012>+10</crs:Shadows2012>
      <crs:Whites2012>-20</crs:Whites2012>
      <crs:Blacks2012>+5</crs:Blacks2012>
      <crs:Texture>-5</crs:Texture>
      <crs:Clarity2012>-10</crs:Clarity2012>
      <crs:Dehaze>+5</crs:Dehaze>
      <crs:Vibrance>-20</crs:Vibrance>
      <crs:Saturation>-15</crs:Saturation>
      <crs:ParametricShadows>+5</crs:ParametricShadows>
      <crs:ParametricDarks>0</crs:ParametricDarks>
      <crs:ParametricLights>-15</crs:ParametricLights>
      <crs:ParametricHighlights>-25</crs:ParametricHighlights>
      <crs:ParametricShadowSplit>25</crs:ParametricShadowSplit>
      <crs:ParametricMidtoneSplit>50</crs:ParametricMidtoneSplit>
      <crs:ParametricHighlightSplit>75</crs:ParametricHighlightSplit>
      <crs:SharpenRadius>+1.0</crs:SharpenRadius>
      <crs:SharpenDetail>20</crs:SharpenDetail>
      <crs:SharpenEdgeMasking>60</crs:SharpenEdgeMasking>
      <crs:LuminanceSmoothing>15</crs:LuminanceSmoothing>
      <crs:ColorNoiseReduction>30</crs:ColorNoiseReduction>
      <crs:HueAdjustmentRed>+10</crs:HueAdjustmentRed>
      <crs:HueAdjustmentOrange>+15</crs:HueAdjustmentOrange>
      <crs:HueAdjustmentYellow>+10</crs:HueAdjustmentYellow>
      <crs:HueAdjustmentGreen>+5</crs:HueAdjustmentGreen>
      <crs:HueAdjustmentAqua>-5</crs:HueAdjustmentAqua>
      <crs:HueAdjustmentBlue>+10</crs:HueAdjustmentBlue>
      <crs:HueAdjustmentPurple>+15</crs:HueAdjustmentPurple>
      <crs:HueAdjustmentMagenta>+10</crs:HueAdjustmentMagenta>
      <crs:SaturationAdjustmentRed>-10</crs:SaturationAdjustmentRed>
      <crs:SaturationAdjustmentOrange>+5</crs:SaturationAdjustmentOrange>
      <crs:SaturationAdjustmentYellow>0</crs:SaturationAdjustmentYellow>
      <crs:SaturationAdjustmentGreen>-20</crs:SaturationAdjustmentGreen>
      <crs:SaturationAdjustmentAqua>-15</crs:SaturationAdjustmentAqua>
      <crs:SaturationAdjustmentBlue>-10</crs:SaturationAdjustmentBlue>
      <crs:SaturationAdjustmentPurple>-5</crs:SaturationAdjustmentPurple>
      <crs:SaturationAdjustmentMagenta>0</crs:SaturationAdjustmentMagenta>
      <crs:LuminanceAdjustmentRed>+10</crs:LuminanceAdjustmentRed>
      <crs:LuminanceAdjustmentOrange>+15</crs:LuminanceAdjustmentOrange>
      <crs:LuminanceAdjustmentYellow>+10</crs:LuminanceAdjustmentYellow>
      <crs:LuminanceAdjustmentGreen>+5</crs:LuminanceAdjustmentGreen>
      <crs:LuminanceAdjustmentAqua>-5</crs:LuminanceAdjustmentAqua>
      <crs:LuminanceAdjustmentBlue>-10</crs:LuminanceAdjustmentBlue>
      <crs:LuminanceAdjustmentPurple>-5</crs:LuminanceAdjustmentPurple>
      <crs:LuminanceAdjustmentMagenta>+5</crs:LuminanceAdjustmentMagenta>
      <crs:SplitToningShadowHue>25</crs:SplitToningShadowHue>
      <crs:SplitToningShadowSaturation>10</crs:SplitToningShadowSaturation>
      <crs:SplitToningHighlightHue>50</crs:SplitToningHighlightHue>
      <crs:SplitToningHighlightSaturation>8</crs:SplitToningHighlightSaturation>
      <crs:SplitToningBalance>+10</crs:SplitToningBalance>
      <crs:ColorGradeShadowLum>0</crs:ColorGradeShadowLum>
      <crs:ColorGradeMidtoneLum>-5</crs:ColorGradeMidtoneLum>
      <crs:ColorGradeHighlightLum>-10</crs:ColorGradeHighlightLum>
      <crs:ColorGradeMidtoneHue>35</crs:ColorGradeMidtoneHue>
      <crs:ColorGradeMidtoneSat>10</crs:ColorGradeMidtoneSat>
      <crs:GrainAmount>25</crs:GrainAmount>
      <crs:GrainSize>30</crs:GrainSize>
      <crs:GrainFrequency>45</crs:GrainFrequency>
      <crs:PostCropVignetteAmount>-12</crs:PostCropVignetteAmount>
      <crs:PostCropVignetteMidpoint>45</crs:PostCropVignetteMidpoint>
      <crs:PostCropVignetteFeather>60</crs:PostCropVignetteFeather>
      <crs:PostCropVignetteRoundness>+10</crs:PostCropVignetteRoundness>
      <crs:ToneCurveName2012>Custom</crs:ToneCurveName2012>
      <crs:ToneCurvePV2012>
        <rdf:Seq>
          <rdf:li>0, 8</rdf:li>
          <rdf:li>64, 65</rdf:li>
          <rdf:li>128, 125</rdf:li>
          <rdf:li>192, 180</rdf:li>
          <rdf:li>255, 245</rdf:li>
        </rdf:Seq>
      </crs:ToneCurvePV2012>
      <crs:ToneCurvePV2012Red>
        <rdf:Seq>
          <rdf:li>0, 5</rdf:li>
          <rdf:li>255, 252</rdf:li>
        </rdf:Seq>
      </crs:ToneCurvePV2012Red>
      <crs:ToneCurvePV2012Green>
        <rdf:Seq>
          <rdf:li>0, 5</rdf:li>
          <rdf:li>255, 250</rdf:li>
        </rdf:Seq>
      </crs:ToneCurvePV2012Green>
      <crs:ToneCurvePV2012Blue>
        <rdf:Seq>
          <rdf:li>0, 10</rdf:li>
          <rdf:li>255, 248</rdf:li>
        </rdf:Seq>
      </crs:ToneCurvePV2012Blue>
    </rdf:Description>
  </rdf:RDF>
</x:xmpmeta>
