lightroom-presets/japanese-styles/Tokyo-Street.xmp
<?xml version="1.0" encoding="UTF-8"?>
<x:xmpmeta xmlns:x="adobe:ns:meta/" x:xmptk="Adobe XMP Core 7.0-c000 1.000000, 0000/00/00-00:00:00">
  <rdf:RDF xmlns:rdf="http://www.w3.org/1999/02/22-rdf-syntax-ns#">
    <rdf:Description rdf:about=""
      xmlns:crs="http://ns.adobe.com/camera-raw-settings/1.0/">
      <crs:Version>15.0</crs:Version>
      <crs:ProcessVersion>11.0</crs:ProcessVersion>
      <crs:WhiteBalance>As Shot</crs:WhiteBalance>
      <crs:Temperature>-5</crs:Temperature>
      <crs:Tint>-3</crs:Tint>
      <crs:Exposure2012>+0.10</crs:Exposure2012>
      <crs:Contrast2012>+25</crs:Contrast2012>
      <crs:Highlights2012>-35</crs:Highlights2012>
      <crs:Shadows2012>-20</crs:Shadows2012>
      <crs:Whites2012>+15</crs:Whites2012>
      <crs:Blacks2012>-25</crs:Blacks2012>
      <crs:Texture>+15</crs:Texture>
      <crs:Clarity2012>+20</crs:Clarity2012>
      <crs:Dehaze>+10</crs:Dehaze>
      <crs:Vibrance>+15</crs:Vibrance>
      <crs:Saturation>-5</crs:Saturation>
      <crs:ParametricShadows>-15</crs:ParametricShadows>
      <crs:ParametricDarks>-5</crs:ParametricDarks>
      <crs:ParametricLights>+10</crs:ParametricLights>
      <crs:ParametricHighlights>-10</crs:ParametricHighlights>
      <crs:ParametricShadowSplit>25</crs:ParametricShadowSplit>
      <crs:ParametricMidtoneSplit>50</crs:ParametricMidtoneSplit>
      <crs:ParametricHighlightSplit>75</crs:ParametricHighlightSplit>
      <crs:SharpenRadius>+1.2</crs:SharpenRadius>
      <crs:SharpenDetail>35</crs:SharpenDetail>
      <crs:SharpenEdgeMasking>40</crs:SharpenEdgeMasking>
      <crs:LuminanceSmoothing>0</crs:LuminanceSmoothing>
      <crs:ColorNoiseReduction>25</crs:ColorNoiseReduction>
      <crs:HueAdjustmentRed>-5</crs:HueAdjustmentRed>
      <crs:HueAdjustmentOrange>-10</crs:HueAdjustmentOrange>
      <crs:HueAdjustmentYellow>+10</crs:HueAdjustmentYellow>
      <crs:HueAdjustmentGreen>-15</crs:HueAdjustmentGreen>
      <crs:HueAdjustmentAqua>+10</crs:HueAdjustmentAqua>
      <crs:HueAdjustmentBlue>-5</crs:HueAdjustmentBlue>
      <crs:HueAdjustmentPurple>+5</crs:HueAdjustmentPurple>
      <crs:HueAdjustmentMagenta>-10</crs:HueAdjustmentMagenta>
      <crs:SaturationAdjustmentRed>+15</crs:SaturationAdjustmentRed>
      <crs:SaturationAdjustmentOrange>+10</crs:SaturationAdjustmentOrange>
      <crs:SaturationAdjustmentYellow>+5</crs:SaturationAdjustmentYellow>
      <crs:SaturationAdjustmentGreen>-10</crs:SaturationAdjustmentGreen>
      <crs:SaturationAdjustmentAqua>+15</crs:SaturationAdjustmentAqua>
      <crs:SaturationAdjustmentBlue>+20</crs:SaturationAdjustmentBlue>
      <crs:SaturationAdjustmentPurple>+10</crs:SaturationAdjustmentPurple>
      <crs:SaturationAdjustmentMagenta>+5</crs:SaturationAdjustmentMagenta>
      <crs:LuminanceAdjustmentRed>-5</crs:LuminanceAdjustmentRed>
      <crs:LuminanceAdjustmentOrange>+5</crs:LuminanceAdjustmentOrange>
      <crs:LuminanceAdjustmentYellow>+10</crs:LuminanceAdjustmentYellow>
      <crs:LuminanceAdjustmentGreen>-10</crs:LuminanceAdjustmentGreen>
      <crs:LuminanceAdjustmentAqua>-5</crs:LuminanceAdjustmentAqua>
      <crs:LuminanceAdjustmentBlue>-15</crs:LuminanceAdjustmentBlue>
      <crs:LuminanceAdjustmentPurple>-10</crs:LuminanceAdjustmentPurple>
      <crs:LuminanceAdjustmentMagenta>0</crs:LuminanceAdjustmentMagenta>
      <crs:SplitToningShadowHue>210</crs:SplitToningShadowHue>
      <crs:SplitToningShadowSaturation>15</crs:SplitToningShadowSaturation>
      <crs:SplitToningHighlightHue>45</crs:SplitToningHighlightHue>
      <crs:SplitToningHighlightSaturation>5</crs:SplitToningHighlightSaturation>
      <crs:SplitToningBalance>-20</crs:SplitToningBalance>
      <crs:ColorGradeShadowLum>-10</crs:ColorGradeShadowLum>
      <crs:ColorGradeMidtoneLum>0</crs:ColorGradeMidtoneLum>
      <crs:ColorGradeHighlightLum>+5</crs:ColorGradeHighlightLum>
      <crs:GrainAmount>15</crs:GrainAmount>
      <crs:GrainSize>15</crs:GrainSize>
      <crs:GrainFrequency>60</crs:GrainFrequency>
      <crs:PostCropVignetteAmount>-15</crs:PostCropVignetteAmount>
      <crs:PostCropVignetteMidpoint>40</crs:PostCropVignetteMidpoint>
      <crs:PostCropVignetteFeather>40</crs:PostCropVignetteFeather>
      <crs:PostCropVignetteRoundness>-10</crs:PostCropVignetteRoundness>
      <crs:ToneCurveName2012>Custom</crs:ToneCurveName2012>
      <crs:ToneCurvePV2012>
        <rdf:Seq>
          <rdf:li>0, 5</rdf:li>
          <rdf:li>64, 55</rdf:li>
          <rdf:li>128, 135</rdf:li>
          <rdf:li>192, 200</rdf:li>
          <rdf:li>255, 255</rdf:li>
        </rdf:Seq>
      </crs:ToneCurvePV2012>
      <crs:ToneCurvePV2012Red>
        <rdf:Seq>
          <rdf:li>0, 0</rdf:li>
          <rdf:li>255, 255</rdf:li>
        </rdf:Seq>
      </crs:ToneCurvePV2012Red>
      <crs:ToneCurvePV2012Green>
        <rdf:Seq>
          <rdf:li>0, 0</rdf:li>
          <rdf:li>255, 255</rdf:li>
        </rdf:Seq>
      </crs:ToneCurvePV2012Green>
      <crs:ToneCurvePV2012Blue>
        <rdf:Seq>
          <rdf:li>0, 5</rdf:li>
          <rdf:li>255, 255</rdf:li>
        </rdf:Seq>
      </crs:ToneCurvePV2012Blue>
    </rdf:Description>
  </rdf:RDF>
</x:xmpmeta>
