lightroom-presets/ricoh-gr-iv/Ricoh-GR-Positive-Film.xmp
<?xml version="1.0" encoding="UTF-8"?>
<x:xmpmeta xmlns:x="adobe:ns:meta/" x:xmptk="Adobe XMP Core 7.0-c000 1.000000, 0000/00/00-00:00:00">
  <rdf:RDF xmlns:rdf="http://www.w3.org/1999/02/22-rdf-syntax-ns#">
    <rdf:Description rdf:about=""
      xmlns:crs="http://ns.adobe.com/camera-raw-settings/1.0/">
      <crs:Version>15.0</crs:Version>
      <crs:ProcessVersion>11.0</crs:ProcessVersion>
      <crs:WhiteBalance>As Shot</crs:WhiteBalance>
      <crs:Temperature>+10</crs:Temperature>
      <crs:Tint>+3</crs:Tint>
      <crs:Exposure2012>+0.20</crs:Exposure2012>
      <crs:Contrast2012>+20</crs:Contrast2012>
      <crs:Highlights2012>-15</crs:Highlights2012>
      <crs:Shadows2012>+5</crs:Shadows2012>
      <crs:Whites2012>+10</crs:Whites2012>
      <crs:Blacks2012>-10</crs:Blacks2012>
      <crs:Texture>+5</crs:Texture>
      <crs:Clarity2012>+10</crs:Clarity2012>
      <crs:Dehaze>0</crs:Dehaze>
      <crs:Vibrance>+20</crs:Vibrance>
      <crs:Saturation>+10</crs:Saturation>
      <crs:ParametricShadows>0</crs:ParametricShadows>
      <crs:ParametricDarks>+5</crs:ParametricDarks>
      <crs:ParametricLights>+5</crs:ParametricLights>
      <crs:ParametricHighlights>-5</crs:ParametricHighlights>
      <crs:ParametricShadowSplit>25</crs:ParametricShadowSplit>
      <crs:ParametricMidtoneSplit>50</crs:ParametricMidtoneSplit>
      <crs:ParametricHighlightSplit>75</crs:ParametricHighlightSplit>
      <crs:SharpenRadius>+1.0</crs:SharpenRadius>
      <crs:SharpenDetail>30</crs:SharpenDetail>
      <crs:SharpenEdgeMasking>45</crs:SharpenEdgeMasking>
      <crs:LuminanceSmoothing>10</crs:LuminanceSmoothing>
      <crs:ColorNoiseReduction>25</crs:ColorNoiseReduction>
      <crs:HueAdjustmentRed>+5</crs:HueAdjustmentRed>
      <crs:HueAdjustmentOrange>+5</crs:HueAdjustmentOrange>
      <crs:HueAdjustmentYellow>+10</crs:HueAdjustmentYellow>
      <crs:HueAdjustmentGreen>0</crs:HueAdjustmentGreen>
      <crs:HueAdjustmentAqua>-5</crs:HueAdjustmentAqua>
      <crs:HueAdjustmentBlue>0</crs:HueAdjustmentBlue>
      <crs:HueAdjustmentPurple>+5</crs:HueAdjustmentPurple>
      <crs:HueAdjustmentMagenta>0</crs:HueAdjustmentMagenta>
      <crs:SaturationAdjustmentRed>+15</crs:SaturationAdjustmentRed>
      <crs:SaturationAdjustmentOrange>+15</crs:SaturationAdjustmentOrange>
      <crs:SaturationAdjustmentYellow>+10</crs:SaturationAdjustmentYellow>
      <crs:SaturationAdjustmentGreen>+10</crs:SaturationAdjustmentGreen>
      <crs:SaturationAdjustmentAqua>+5</crs:SaturationAdjustmentAqua>
      <crs:SaturationAdjustmentBlue>+15</crs:SaturationAdjustmentBlue>
      <crs:SaturationAdjustmentPurple>+10</crs:SaturationAdjustmentPurple>
      <crs:SaturationAdjustmentMagenta>+5</crs:SaturationAdjustmentMagenta>
      <crs:LuminanceAdjustmentRed>+5</crs:LuminanceAdjustmentRed>
      <crs:LuminanceAdjustmentOrange>+8</crs:LuminanceAdjustmentOrange>
      <crs:LuminanceAdjustmentYellow>+5</crs:LuminanceAdjustmentYellow>
      <crs:LuminanceAdjustmentGreen>+3</crs:LuminanceAdjustmentGreen>
      <crs:LuminanceAdjustmentAqua>0</crs:LuminanceAdjustmentAqua>
      <crs:LuminanceAdjustmentBlue>-3</crs:LuminanceAdjustmentBlue>
      <crs:LuminanceAdjustmentPurple>0</crs:LuminanceAdjustmentPurple>
      <crs:LuminanceAdjustmentMagenta>+3</crs:LuminanceAdjustmentMagenta>
      <crs:SplitToningShadowHue>30</crs:SplitToningShadowHue>
      <crs:SplitToningShadowSaturation>5</crs:SplitToningShadowSaturation>
      <crs:SplitToningHighlightHue>50</crs:SplitToningHighlightHue>
      <crs:SplitToningHighlightSaturation>8</crs:SplitToningHighlightSaturation>
      <crs:SplitToningBalance>0</crs:SplitToningBalance>
      <crs:ColorGradeMidtoneHue>45</crs:ColorGradeMidtoneHue>
      <crs:ColorGradeMidtoneSat>8</crs:ColorGradeMidtoneSat>
      <crs:ColorGradeShadowLum>0</crs:ColorGradeShadowLum>
      <crs:ColorGradeHighlightLum>+5</crs:ColorGradeHighlightLum>
      <crs:GrainAmount>10</crs:GrainAmount>
      <crs:GrainSize>20</crs:GrainSize>
      <crs:GrainFrequency>55</crs:GrainFrequency>
      <crs:PostCropVignetteAmount>-5</crs:PostCropVignetteAmount>
      <crs:PostCropVignetteMidpoint>50</crs:PostCropVignetteMidpoint>
      <crs:PostCropVignetteFeather>50</crs:PostCropVignetteFeather>
      <crs:PostCropVignetteRoundness>0</crs:PostCropVignetteRoundness>
      <crs:ToneCurveName2012>Custom</crs:ToneCurveName2012>
      <crs:ToneCurvePV2012>
        <rdf:Seq>
          <rdf:li>0, 3</rdf:li>
          <rdf:li>64, 62</rdf:li>
          <rdf:li>128, 135</rdf:li>
          <rdf:li>192, 200</rdf:li>
          <rdf:li>255, 255</rdf:li>
        </rdf:Seq>
      </crs:ToneCurvePV2012>
      <crs:ToneCurvePV2012Red>
        <rdf:Seq>
          <rdf:li>0, 0</rdf:li>
          <rdf:li>255, 255</rdf:li>
        </rdf:Seq>
      </crs:ToneCurvePV2012Red>
      <crs:ToneCurvePV2012Green>
        <rdf:Seq>
          <rdf:li>0, 0</rdf:li>
          <rdf:li>255, 255</rdf:li>
        </rdf:Seq>
      </crs:ToneCurvePV2012Green>
      <crs:ToneCurvePV2012Blue>
        <rdf:Seq>
          <rdf:li>0, 0</rdf:li>
          <rdf:li>255, 255</rdf:li>
        </rdf:Seq>
      </crs:ToneCurvePV2012Blue>
    </rdf:Description>
  </rdf:RDF>
</x:xmpmeta>
