lightroom-presets/ricoh-gr-iv/Ricoh-GR-Negative-Film.xmp
<?xml version="1.0" encoding="UTF-8"?>
<x:xmpmeta xmlns:x="adobe:ns:meta/" x:xmptk="Adobe XMP Core 7.0-c000 1.000000, 0000/00/00-00:00:00">
  <rdf:RDF xmlns:rdf="http://www.w3.org/1999/02/22-rdf-syntax-ns#">
    <rdf:Description rdf:about=""
      xmlns:crs="http://ns.adobe.com/camera-raw-settings/1.0/">
      <crs:Version>15.0</crs:Version>
      <crs:ProcessVersion>11.0</crs:ProcessVersion>
      <crs:WhiteBalance>As Shot</crs:WhiteBalance>
      <crs:Temperature>-2</crs:Temperature>
      <crs:Tint>0</crs:Tint>
      <crs:Exposure2012>+0.05</crs:Exposure2012>
      <crs:Contrast2012>-10</crs:Contrast2012>
      <crs:Highlights2012>-20</crs:Highlights2012>
      <crs:Shadows2012>+20</crs:Shadows2012>
      <crs:Whites2012>-5</crs:Whites2012>
      <crs:Blacks2012>+10</crs:Blacks2012>
      <crs:Texture>-8</crs:Texture>
      <crs:Clarity2012>-5</crs:Clarity2012>
      <crs:Dehaze>-3</crs:Dehaze>
      <crs:Vibrance>-15</crs:Vibrance>
      <crs:Saturation>-12</crs:Saturation>
      <crs:ParametricShadows>+10</crs:ParametricShadows>
      <crs:ParametricDarks>+5</crs:ParametricDarks>
      <crs:ParametricLights>-5</crs:ParametricLights>
      <crs:ParametricHighlights>-15</crs:ParametricHighlights>
      <crs:ParametricShadowSplit>25</crs:ParametricShadowSplit>
      <crs:ParametricMidtoneSplit>50</crs:ParametricMidtoneSplit>
      <crs:ParametricHighlightSplit>75</crs:ParametricHighlightSplit>
      <crs:SharpenRadius>+0.8</crs:SharpenRadius>
      <crs:SharpenDetail>20</crs:SharpenDetail>
      <crs:SharpenEdgeMasking>55</crs:SharpenEdgeMasking>
      <crs:LuminanceSmoothing>20</crs:LuminanceSmoothing>
      <crs:ColorNoiseReduction>30</crs:ColorNoiseReduction>
      <crs:HueAdjustmentRed>0</crs:HueAdjustmentRed>
      <crs:HueAdjustmentOrange>+5</crs:HueAdjustmentOrange>
      <crs:HueAdjustmentYellow>+5</crs:HueAdjustmentYellow>
      <crs:HueAdjustmentGreen>+5</crs:HueAdjustmentGreen>
      <crs:HueAdjustmentAqua>0</crs:HueAdjustmentAqua>
      <crs:HueAdjustmentBlue>+5</crs:HueAdjustmentBlue>
      <crs:HueAdjustmentPurple>0</crs:HueAdjustmentPurple>
      <crs:HueAdjustmentMagenta>0</crs:HueAdjustmentMagenta>
      <crs:SaturationAdjustmentRed>-10</crs:SaturationAdjustmentRed>
      <crs:SaturationAdjustmentOrange>-5</crs:SaturationAdjustmentOrange>
      <crs:SaturationAdjustmentYellow>-8</crs:SaturationAdjustmentYellow>
      <crs:SaturationAdjustmentGreen>-12</crs:SaturationAdjustmentGreen>
      <crs:SaturationAdjustmentAqua>-10</crs:SaturationAdjustmentAqua>
      <crs:SaturationAdjustmentBlue>-8</crs:SaturationAdjustmentBlue>
      <crs:SaturationAdjustmentPurple>-5</crs:SaturationAdjustmentPurple>
      <crs:SaturationAdjustmentMagenta>-5</crs:SaturationAdjustmentMagenta>
      <crs:LuminanceAdjustmentRed>+3</crs:LuminanceAdjustmentRed>
      <crs:LuminanceAdjustmentOrange>+5</crs:LuminanceAdjustmentOrange>
      <crs:LuminanceAdjustmentYellow>+5</crs:LuminanceAdjustmentYellow>
      <crs:LuminanceAdjustmentGreen>+3</crs:LuminanceAdjustmentGreen>
      <crs:LuminanceAdjustmentAqua>0</crs:LuminanceAdjustmentAqua>
      <crs:LuminanceAdjustmentBlue>-3</crs:LuminanceAdjustmentBlue>
      <crs:LuminanceAdjustmentPurple>0</crs:LuminanceAdjustmentPurple>
      <crs:LuminanceAdjustmentMagenta>+3</crs:LuminanceAdjustmentMagenta>
      <crs:SplitToningShadowHue>210</crs:SplitToningShadowHue>
      <crs:SplitToningShadowSaturation>8</crs:SplitToningShadowSaturation>
      <crs:SplitToningHighlightHue>40</crs:SplitToningHighlightHue>
      <crs:SplitToningHighlightSaturation>5</crs:SplitToningHighlightSaturation>
      <crs:SplitToningBalance>0</crs:SplitToningBalance>
      <crs:ColorGradeShadowLum>+5</crs:ColorGradeShadowLum>
      <crs:ColorGradeMidtoneLum>0</crs:ColorGradeMidtoneLum>
      <crs:ColorGradeHighlightLum>-3</crs:ColorGradeHighlightLum>
      <crs:GrainAmount>20</crs:GrainAmount>
      <crs:GrainSize>25</crs:GrainSize>
      <crs:GrainFrequency>50</crs:GrainFrequency>
      <crs:PostCropVignetteAmount>-8</crs:PostCropVignetteAmount>
      <crs:PostCropVignetteMidpoint>50</crs:PostCropVignetteMidpoint>
      <crs:PostCropVignetteFeather>55</crs:PostCropVignetteFeather>
      <crs:PostCropVignetteRoundness>0</crs:PostCropVignetteRoundness>
      <crs:ToneCurveName2012>Custom</crs:ToneCurveName2012>
      <crs:ToneCurvePV2012>
        <rdf:Seq>
          <rdf:li>0, 15</rdf:li>
          <rdf:li>64, 70</rdf:li>
          <rdf:li>128, 125</rdf:li>
          <rdf:li>192, 185</rdf:li>
          <rdf:li>255, 248</rdf:li>
        </rdf:Seq>
      </crs:ToneCurvePV2012>
      <crs:ToneCurvePV2012Red>
        <rdf:Seq>
          <rdf:li>0, 8</rdf:li>
          <rdf:li>255, 252</rdf:li>
        </rdf:Seq>
      </crs:ToneCurvePV2012Red>
      <crs:ToneCurvePV2012Green>
        <rdf:Seq>
          <rdf:li>0, 8</rdf:li>
          <rdf:li>255, 250</rdf:li>
        </rdf:Seq>
      </crs:ToneCurvePV2012Green>
      <crs:ToneCurvePV2012Blue>
        <rdf:Seq>
          <rdf:li>0, 10</rdf:li>
          <rdf:li>255, 248</rdf:li>
        </rdf:Seq>
      </crs:ToneCurvePV2012Blue>
    </rdf:Description>
  </rdf:RDF>
</x:xmpmeta>
