lightroom-presets/ricoh-gr-iv/Ricoh-GR-Snap.xmp
<?xml version="1.0" encoding="UTF-8"?>
<x:xmpmeta xmlns:x="adobe:ns:meta/" x:xmptk="Adobe XMP Core 7.0-c000 1.000000, 0000/00/00-00:00:00">
  <rdf:RDF xmlns:rdf="http://www.w3.org/1999/02/22-rdf-syntax-ns#">
    <rdf:Description rdf:about=""
      xmlns:crs="http://ns.adobe.com/camera-raw-settings/1.0/">
      <crs:Version>15.0</crs:Version>
      <crs:ProcessVersion>11.0</crs:ProcessVersion>
      <crs:WhiteBalance>As Shot</crs:WhiteBalance>
      <crs:Temperature>+2</crs:Temperature>
      <crs:Tint>+2</crs:Tint>
      <crs:Exposure2012>+0.10</crs:Exposure2012>
      <crs:Contrast2012>+15</crs:Contrast2012>
      <crs:Highlights2012>-20</crs:Highlights2012>
      <crs:Shadows2012>+10</crs:Shadows2012>
      <crs:Whites2012>+5</crs:Whites2012>
      <crs:Blacks2012>-15</crs:Blacks2012>
      <crs:Texture>+10</crs:Texture>
      <crs:Clarity2012>+15</crs:Clarity2012>
      <crs:Dehaze>+5</crs:Dehaze>
      <crs:Vibrance>+10</crs:Vibrance>
      <crs:Saturation>+5</crs:Saturation>
      <crs:ParametricShadows>+5</crs:ParametricShadows>
      <crs:ParametricDarks>+5</crs:ParametricDarks>
      <crs:ParametricLights>+5</crs:ParametricLights>
      <crs:ParametricHighlights>-10</crs:ParametricHighlights>
      <crs:ParametricShadowSplit>25</crs:ParametricShadowSplit>
      <crs:ParametricMidtoneSplit>50</crs:ParametricMidtoneSplit>
      <crs:ParametricHighlightSplit>75</crs:ParametricHighlightSplit>
      <crs:SharpenRadius>+1.1</crs:SharpenRadius>
      <crs:SharpenDetail>30</crs:SharpenDetail>
      <crs:SharpenEdgeMasking>40</crs:SharpenEdgeMasking>
      <crs:LuminanceSmoothing>5</crs:LuminanceSmoothing>
      <crs:ColorNoiseReduction>25</crs:ColorNoiseReduction>
      <crs:HueAdjustmentRed>0</crs:HueAdjustmentRed>
      <crs:HueAdjustmentOrange>+5</crs:HueAdjustmentOrange>
      <crs:HueAdjustmentYellow>+5</crs:HueAdjustmentYellow>
      <crs:HueAdjustmentGreen>0</crs:HueAdjustmentGreen>
      <crs:HueAdjustmentAqua>0</crs:HueAdjustmentAqua>
      <crs:HueAdjustmentBlue>0</crs:HueAdjustmentBlue>
      <crs:HueAdjustmentPurple>0</crs:HueAdjustmentPurple>
      <crs:HueAdjustmentMagenta>0</crs:HueAdjustmentMagenta>
      <crs:SaturationAdjustmentRed>+10</crs:SaturationAdjustmentRed>
      <crs:SaturationAdjustmentOrange>+8</crs:SaturationAdjustmentOrange>
      <crs:SaturationAdjustmentYellow>+5</crs:SaturationAdjustmentYellow>
      <crs:SaturationAdjustmentGreen>+5</crs:SaturationAdjustmentGreen>
      <crs:SaturationAdjustmentAqua>+5</crs:SaturationAdjustmentAqua>
      <crs:SaturationAdjustmentBlue>+10</crs:SaturationAdjustmentBlue>
      <crs:SaturationAdjustmentPurple>+5</crs:SaturationAdjustmentPurple>
      <crs:SaturationAdjustmentMagenta>+5</crs:SaturationAdjustmentMagenta>
      <crs:LuminanceAdjustmentRed>+3</crs:LuminanceAdjustmentRed>
      <crs:LuminanceAdjustmentOrange>+5</crs:LuminanceAdjustmentOrange>
      <crs:LuminanceAdjustmentYellow>+5</crs:LuminanceAdjustmentYellow>
      <crs:LuminanceAdjustmentGreen>0</crs:LuminanceAdjustmentGreen>
      <crs:LuminanceAdjustmentAqua>0</crs:LuminanceAdjustmentAqua>
      <crs:LuminanceAdjustmentBlue>-5</crs:LuminanceAdjustmentBlue>
      <crs:LuminanceAdjustmentPurple>0</crs:LuminanceAdjustmentPurple>
      <crs:LuminanceAdjustmentMagenta>0</crs:LuminanceAdjustmentMagenta>
      <crs:SplitToningShadowHue>220</crs:SplitToningShadowHue>
      <crs:SplitToningShadowSaturation>5</crs:SplitToningShadowSaturation>
      <crs:SplitToningHighlightHue>45</crs:SplitToningHighlightHue>
      <crs:SplitToningHighlightSaturation>5</crs:SplitToningHighlightSaturation>
      <crs:SplitToningBalance>0</crs:SplitToningBalance>
      <crs:ColorGradeShadowLum>+3</crs:ColorGradeShadowLum>
      <crs:ColorGradeMidtoneLum>0</crs:ColorGradeMidtoneLum>
      <crs:ColorGradeHighlightLum>0</crs:ColorGradeHighlightLum>
      <crs:GrainAmount>8</crs:GrainAmount>
      <crs:GrainSize>18</crs:GrainSize>
      <crs:GrainFrequency>60</crs:GrainFrequency>
      <crs:PostCropVignetteAmount>-10</crs:PostCropVignetteAmount>
      <crs:PostCropVignetteMidpoint>45</crs:PostCropVignetteMidpoint>
      <crs:PostCropVignetteFeather>45</crs:PostCropVignetteFeather>
      <crs:PostCropVignetteRoundness>0</crs:PostCropVignetteRoundness>
      <crs:ToneCurveName2012>Custom</crs:ToneCurveName2012>
      <crs:ToneCurvePV2012>
        <rdf:Seq>
          <rdf:li>0, 0</rdf:li>
          <rdf:li>64, 60</rdf:li>
          <rdf:li>128, 132</rdf:li>
          <rdf:li>192, 198</rdf:li>
          <rdf:li>255, 255</rdf:li>
        </rdf:Seq>
      </crs:ToneCurvePV2012>
      <crs:ToneCurvePV2012Red>
        <rdf:Seq>
          <rdf:li>0, 0</rdf:li>
          <rdf:li>255, 255</rdf:li>
        </rdf:Seq>
      </crs:ToneCurvePV2012Red>
      <crs:ToneCurvePV2012Green>
        <rdf:Seq>
          <rdf:li>0, 0</rdf:li>
          <rdf:li>255, 255</rdf:li>
        </rdf:Seq>
      </crs:ToneCurvePV2012Green>
      <crs:ToneCurvePV2012Blue>
        <rdf:Seq>
          <rdf:li>0, 0</rdf:li>
          <rdf:li>255, 255</rdf:li>
        </rdf:Seq>
      </crs:ToneCurvePV2012Blue>
    </rdf:Description>
  </rdf:RDF>
</x:xmpmeta>
